src/48x48/places/folder-gruvbox-material-aqua-onedrive.svg

<svg xmlns="http://www.w3.org/2000/svg" width="48" height="48" version="1">
 <rect style="opacity:0.2" width="40" height="26" x="4" y="17" rx="2" ry="2"/>
 <path style="fill:#4c7a5d" d="M 4,34 C 4,35.108 4.892,36 6,36 H 42 C 43.108,36 44,35.108 44,34 V 12 C 44,10.892 43.108,10 42,10 H 24 C 21,10 20,6 17,6 H 6 C 4.892,6 4,6.892 4,8"/>
 <rect style="opacity:0.2" width="40" height="26" x="4" y="15" rx="2" ry="2"/>
 <rect style="fill:#DBE3C7" width="36" height="16" x="6" y="13" rx="2" ry="2"/>
 <rect style="fill:#89b482" width="40" height="26" x="4" y="16" rx="2" ry="2"/>
 <path style="opacity:0.1;fill:#DBE3C7" d="M 6,6 C 4.892,6 4,6.892 4,8 V 9 C 4,7.892 4.892,7 6,7 H 17 C 20,7 21,11 24,11 H 42 C 43.108,11 44,11.892 44,13 V 12 C 44,10.892 43.108,10 42,10 H 24 C 21,10 20,6 17,6 Z"/>
 <path style="fill:#414A42" d="M 26 22 C 24.25653 22.0023 22.640162 22.912631 21.734375 24.402344 C 21.193818 24.139635 20.60101 24.002114 20 24 C 17.790861 24 16 25.790861 16 28 C 16.000587 28.01302 16.001153 28.026043 16.001953 28.039062 C 14.280315 28.286563 13.001712 29.76071 13 31.5 C 13 33.432997 14.567003 35 16.5 35 C 17.134373 34.9975 17.756143 34.822664 18.298828 34.494141 C 18.110222 34.031289 18 33.527942 18 33 C 18 31.097086 19.378508 29.566352 21.167969 29.169922 C 21.579715 26.827355 23.544277 25 26 25 L 26.001953 25 C 27.646774 25.002 29.039243 25.934087 29.962891 27.251953 C 30.308046 27.156399 30.639367 27.000325 31 27 C 31 24.238576 28.761424 22 26 22 z M 26 26 A 4 4 0 0 0 22 30 A 3 3 0 0 0 19 33 A 3 3 0 0 0 22 36 L 34.5 36 A 2.5 2.5 0 0 0 37 33.5 A 2.5 2.5 0 0 0 34.5 31 A 2.5 2.5 0 0 0 33.998047 31.054688 A 3 3 0 0 0 34 31 A 3 3 0 0 0 31 28 A 3 3 0 0 0 29.630859 28.332031 A 4 4 0 0 0 26 26 z"/>
</svg>

<?xml version="1.0" encoding="UTF-8"?>
<svg width="48" height="48" version="1" xmlns="http://www.w3.org/2000/svg">
 <rect x="4" y="17" width="40" height="26" rx="2" ry="2" opacity=".2"/>
 <path d="m4 34c0 1.108 0.892 2 2 2h36c1.108 0 2-0.892 2-2v-22c0-1.108-0.892-2-2-2h-18c-3 0-4-4-7-4h-11c-1.108 0-2 0.892-2 2" fill="#4c7a5d"/>
 <rect x="4" y="15" width="40" height="26" rx="2" ry="2" opacity=".2"/>
 <rect x="6" y="13" width="36" height="16" rx="2" ry="2" fill="#DBE3C7"/>
 <rect x="4" y="16" width="40" height="26" rx="2" ry="2" fill="#89b482"/>
 <path d="m6 6c-1.108 0-2 0.892-2 2v1c0-1.108 0.892-2 2-2h11c3 0 4 4 7 4h18c1.108 0 2 0.892 2 2v-1c0-1.108-0.892-2-2-2h-18c-3 0-4-4-7-4z" fill="#DBE3C7" opacity=".1"/>
 <path d="m26 22c-1.7435 0.0023-3.3598 0.91263-4.2656 2.4023-0.54056-0.26271-1.1334-0.40023-1.7344-0.40234-2.2091 0-4 1.7909-4 4 5.87e-4 0.01302 0.001153 0.026043 0.001953 0.039062-1.7216 0.2475-3.0002 1.7216-3.002 3.4609 0 1.933 1.567 3.5 3.5 3.5 0.63437-0.0025 1.2561-0.17734 1.7988-0.50586-0.18861-0.46285-0.29883-0.9662-0.29883-1.4941 0-1.9029 1.3785-3.4336 3.168-3.8301 0.41175-2.3426 2.3763-4.1699 4.832-4.1699h0.001953c1.6448 2e-3 3.0373 0.93409 3.9609 2.252 0.34516-0.095554 0.67648-0.25163 1.0371-0.25195 0-2.7614-2.2386-5-5-5zm0 4a4 4 0 0 0-4 4 3 3 0 0 0-3 3 3 3 0 0 0 3 3h12.5a2.5 2.5 0 0 0 2.5-2.5 2.5 2.5 0 0 0-2.5-2.5 2.5 2.5 0 0 0-0.50195 0.054688 3 3 0 0 0 0.001953-0.054688 3 3 0 0 0-3-3 3 3 0 0 0-1.3691 0.33203 4 4 0 0 0-3.6309-2.332z" fill="#414A42"/>
</svg>
